X: 4602
T: Bouree
R: reel
M: 4/4
K: Aminor
|:"Am"e2d2"E"c2B2|"Am" ABcd"E"B2E2|"Dm" FEF^G ABcd|"E7" Bdef e2 ^g2|
"Am"a2 e2"A7" g3 f|"A7"^cd e2 A2 g2|"Dm" f2 ed "A" ^cd e2|"A" A2 ^c2"Dm" d4:|"A" A2 ^c2"Dm" d2Bc|
|:"G" d2G2G2 cd|"Am" e2 A2A2de|"G7" f2B2g3f|"C" ef e2"C" c2B2|
"Am"Ace^ga2=g2|"Dm"f2e2"E7"d2B2|"Am"c2 BA"E7"^GAB2|"E7" E2^G2"Am"A2Bc:|"E7" E2^G2"Am"A4||

